X: 21270
T: Keeping Up With Calum
R: reel
M: 4/4
K: Bminor
B2 B>A||B2 F>B D>FB>d|f>bf>d B2 B>d|c>A (3AAA e>Aa2-|a>fe>c A>BB>A|
B2 F>B D>FB>d|f>bf>d B (3BBB d|c>A (3AAA e>Aa2-|a>fe>c d>BB>A|
B2 F>B D>FB>d|f>bf>d B (3BBB d|c>A (3AAA e>Aa2-|a>fe>c A>BB>A|
B2 F>B D>FB>d|f>bf>d B (3BBB d|c>A (3AAA e>Aa2-|a>fe>c d>BB>A|
|:B2 F>D B,>D F>B|c>d c>d B3d|c>A (3AAA e>Af>A|(3AAA e>Af>ed>c|
B2 F>D B,>D F>B|c>d c>d B3d|c>A (3AAA e>Aa2-|a>fe>c d>BB>A:|
|:B>c d>e d>c B>f|f>e d>c B2B>d|c>A (3AAA e>Af>A|(3AAA e>A f>ed>c|
B>c d>e d>c B>f|f>e d>c B2B>d|c>A (3AAA e>Aa2-|a>fe>c d>BB>A:|

